!!!!SEGMENT: pl-wtm--r-2024--001_smietanski-emil-wladyslaw--marcia-zingaresca-op-19.krn
!!!cenid: 18xx:1975
!!!COM: Śmietański, Emil Władysław
!!!COM-rismid: pe50041781
!!!CDT: 1845-1886
!!!CNT: Polish
!!!OPR: Marcia zingaresca op. 19
!!!OTL: [march 1]
!!!OMV: 001
!!!PDT: 1867
!!!AGN: Secular; March
!!!SMS-siglum: PL-Wtm
!!!SMS-shelfmark: R 2024
!!!SMS-shelfwork: 001-001 M
!!!SMS-variant:
!!!SMS-altvar:
!!!NIFC-rismid: 1001112464
!!!URL-scan: http://repozytorium.nifc.pl/skany/pl-wtm-nut--r2024
!!!ONB-nifc: UWAGA: III. Marcia zingaresca
!!!key:
**kern	**kern	**dynam
*part2	*part1	*part1
*staff2	*staff1	*
*Iforte	*Iforte	*
*I"[fortepian]	*I"[fortepian]	*
*I'pf	*I'pf	*
*clefF4	*clefG2	*
*k[f#c#g#]	*k[f#c#g#]	*
*f#:	*f#:	*
*M2/4	*M2/4	*
=1	=1	=1
!	!LO:TX:t=P:problem=caudy w dół różnie	!
4CC#/ 4CCC#/	4c#/ 4C#/	.
.	.	ff
4EE#X/ 4EEE#X/	4e#X/ 4E#X/	.
=2	=2	=2
4AA/ 4AAA/	4a/ 4A/	.
4GG#/ 4GGG#/	4g#/ 4G#/	.
=3	=3	=3
8GG#\L	8ddd\ 8dd\	p
8f#\J 8B#X\ 8G#\	32ddd\LLL	.
.	32ccc#\JJJ 32cc#\	.
.	16r	.
8f#\L 8B#\ 8G#\	32ccc#\LLL	.
.	32bb#X\JJJ 32b#X\	.
.	16r	.
8f#\J 8B#\ 8G#\	32bb#\LLL	.
.	32aa\JJJ 32a\	.
.	16r	.
=4	=4	=4
8f#\L 8B#X\ 8G#\	32aa\LLL	.
.	32gg#\JJJ 32g#\	.
.	16r	.
8f#\J 8B#\ 8G#\	32gg#\LLL	.
.	32bb#X\JJJ 32b#X\	.
.	16r	.
4e#X\ 4c#\	8ccc#\ 8cc#\	.
.	8r	.
=5	=5	=5
4CC#/ 4CCC#/	4c#/ 4C#/	.
.	.	ff
4EE#X/ 4EEE#X/	4e#X/ 4E#X/	.
=6	=6	=6
4AA/ 4AAA/	4a/ 4A/	.
4GG#/ 4GGG#/	4g#/ 4G#/	.
=7	=7	=7
8GG#\L	8ddd\ 8dd\	p
8f#\J 8B#X\ 8G#\	32ddd\LLL	.
.	32ccc#\JJJ 32cc#\	.
.	16r	.
8f#\L 8B#\ 8G#\	32ccc#\LLL	.
.	32bb#X\JJJ 32b#X\	.
.	16r	.
8f#\J 8B#\ 8G#\	32bb#\LLL	.
.	32aa\JJJ 32a\	.
.	16r	.
!!LO:LB:g=original
=8	=8	=8
8f#\L 8B#X\ 8G#\	32aa\LLL	.
.	32gg#\JJJ 32g#\	.
.	16r	.
8f#\J 8B#\ 8G#\	32gg#\LLL	.
.	32bb#X\JJJ 32b#X\	.
.	16r	.
4e#X\ 4c#\	8ccc#\ 8cc#\	.
.	8r	.
=9||	=9||	=9||
8FF#\L	8cc#/L 8a/	mf
8f#\J 8A\	8a/J 8c#/	.
8A\L 8F#\	4cc#/ 4aT/	.
8f#\J 8A\	.	.
=10	=10	=10
8FF#\L	8b#X/L 8g#/	.
8d\J 8G#\	8g#/J 8B#X/	.
8G#\L 8F#\	4b#/ 4g#tt/	.
8d\J 8G#\	.	.
=11	=11	=11
4E#X\ 4CC#\	8cc#\ 8g#\ 8c#\	.
.	(16gg#\LL	.
.	16ee#X\)	.
4e#X\ 4c#\ 4G#\ 4E#\	(16ee#\	.
.	16dd\)	.
.	(16dd\	.
.	16cc#\JJ)	.
=12	=12	=12
16c#'\LL	16cc#'\LL	f
16d'\JJ	16dd'\JJ	.
16B#X'\LL	16b#X'\LL	.
16c#'\JJ	16cc#'\JJ	.
16A'\LL	16a'\LL	.
16B#'\JJ	16b#'\JJ	.
16G#'\LL	16g#'\LL	.
16A'\JJ	16a'\JJ	.
=13	=13	=13
8FF#\L	8cc#\L 8a\	.
8f#\J 8A\	8a\J 8c#\	.
8A\L 8F#\	4cc#\ 4aTT\	.
8f#\J 8A\	.	.
=14	=14	=14
8FF#\L	8b#X\L 8g#\	.
8d\J 8G#\	8g#\J 8B#X\	.
8G#\L 8F#\	4b#/ 4g#tt/	.
8d\J 8G#\	.	.
!!LO:LB:g=original
=15	=15	=15
4E#X\ 4CC#\	8cc#\ 8g#\ 8c#\	.
.	(16gg#\LL	.
.	16ccc#\JJ)	.
4e#X\ 4c#\ 4G#\ 4E#\	(16cc#\LL	.
.	16gg#\JJ)	.
.	(16g#\LL	.
.	16cc#\JJ)	.
=16	=16	=16
16G#'\LL	16g#'\LL	.
16A'\JJ	16a'\JJ	<
16A'\LL	16a'\LL	.
16B#X'\JJ	16b#X'\JJ	.
16B#'\LL	16b#'\LL	.
16c#'\JJ	16cc#'\JJ	.
16c#'\LL	16cc#'\LL	.
16e#X'\JJ	16ee#X'\JJ	[
=17	=17	=17
8AA\L	8een\L 8cc#\	.
8a\J 8c#\	8cc#\J 8e\	.
8c#\L 8A\	4ee\ 4cc#tt\	.
8a\J 8c#\	.	.
=18	=18	=18
8FF#\L	8cc#\L 8a\	.
8fn\J 8A\	8a\J 8c#\	.
8A\L 8Fn\	4cc#\ 4aTT\	.
8f\J 8A\	.	.
=19	=19	=19
4c#\: 4E\: 4AA:\	8ee\ 8a\ 8e\	.
.	(16aa\LL	>
.	16eee\JJ)	.
4a\ 4c#\ 4A\	(16ee\LL	.
.	16aa\JJ)	.
.	(16a\LL	.
.	16ee\JJ)	]
!!LO:LB:g=original
=20	=20	=20
16G#'\LL	16g#'\LL	.
16A'\JJ	16a'\JJ	<
16A'\LL	16a'\LL	.
16c#'\JJ	16cc#'\JJ	.
16c#'\LL	16cc#'\LL	.
16d'\JJ	16dd'\JJ	.
16d'\LL	16dd'\LL	[
16fn'\JJ	16ffn'\JJ	.
=21	=21	=21
8AA\L	8ee\L 8cc#\	.
8a\J 8c#\	8cc#\J 8e\	.
8GG#\L	4ee\ 4b#Xtt\	.
8g#\J 8B#X\	.	.
=22	=22	=22
8FF##X\L	8cc#\L 8a\	.
8d#X\J 8F##X\	8a\J 8c#\	.
8EE\L	4b#X\ 4g#tt\	.
8B#X\J 8G#\	.	.
=23	=23	=23
!	!LO:TX:b:t=cres-:ext2=cd:problem=dynamics with extention lines	!LO:HP:t=cresc.
8EE#X\L	8b#X\L 8g#\	<
8G#\J 8BB#X\	8g#\J 8B#X\	.
8EE#\L	4e#X\ 4c#tt\	.
8A\J 8C#\	.	.
=24	=24	=24
8FF#\L	8f#/L 8d/	.
8A\J 8D\	8d/J 8F#/	[
8GG#\L	4B#X/ 4G#tt/	.
8G#\J 8D\	.	.
=25||	=25||	=25||
!	!	!LO:DY:a
4CC#/ 4CCC#/	4c#</ 4C#</	ff
4EE#X/ 4EEE#X/	4e#X</ 4E#X</	.
=26	=26	=26
4AA\ 4AAA\	4a\ 4A\	.
4GG#\ 4GGG#\	4g#\ 4G#\	.
!!LO:LB:g=original
=27	=27	=27
8GG#\L	8ddd\ 8dd\	p
8f#\J 8B#X\ 8G#\	32ddd\LLL	.
.	32ccc#\JJJ 32cc#\	.
.	16r	.
8f#\L 8B#\ 8G#\	32ccc#\LLL	.
.	32bb#X\JJJ 32b#X\	.
.	16r	.
8f#\J 8B#\ 8G#\	32bb#\LLL	.
.	32aa\JJJ 32a\	.
.	16r	.
=28	=28	=28
8f#\L 8B\ 8G#\	32aa\LLL	.
.	32gg#\JJJ 32g#\	.
.	16r	.
8f#\J 8B\ 8G#\	32gg#\LLL	.
.	32bb#X\JJJ 32b#X\	.
.	16r	.
4e#X\ 4c#\	8ccc#\ 8cc#\	.
.	8r	.
=29	=29	=29
!	!	!LO:DY:a
4CC#/ 4CCC#/	4c#</ 4C#</	ff
4EE#X/ 4EEE#X/	4e#X</ 4E#X</	.
=30	=30	=30
4AA\ 4AAA\	4a</ 4A</	.
4GG#\ 4GGG#\	4g#</ 4G#</	.
=31	=31	=31
8GG#\L	8ddd\ 8dd\	p
8f#\J 8B#X\ 8G#\	32ddd\LLL	.
.	32ccc#\JJJ 32cc#\	.
.	16r	.
8f#\L 8B#\ 8G#\	32ccc#\LLL	.
.	32bb#X\JJJ 32b#X\	.
.	16r	.
8f#\J 8B#\ 8G#\	32bb#\LLL	.
.	32aa\JJJ 32a\	.
.	16r	.
=32	=32	=32
8f#\L 8B\ 8G#\	32aa\LLL	.
.	32gg#\JJJ 32g#\	.
.	16r	.
8f#\J 8B\ 8G#\	32gg#\LLL	.
.	32bb#X\JJJ 32b#X\	.
.	16r	.
4e#X\ 4c#\	8ccc#\ 8cc#\	.
!	!LO:SIC:o:v=ozdobna kreska taktowa	!
.	8r	.
!!LO:LB:g=original
=33||	=33||	=33||
!	!LO:TX:t=P:m(ezzo)f(orte)=mf.:global:problem	!
!	!LO:TX:rj:a:t=Trio.	!
8AA\L	16cc#/LL 16c#'/	mf
.	16ee/ 16e'/	.
8e\J 8A\	16cc#/ 16c#'/	.
.	16ee/JJ 16e'/	.
8EE\L	4a/ 4A/	.
8e\J 8A\	.	.
=34	=34	=34
8GG#\L	16cc#/LL 16c#'/	.
.	16ee/ 16e'/	.
8e\J 8G#\	16cc#/ 16c#'/	.
.	16ee/JJ 16e'/	.
8EE\L	4g#/ 4G#/	.
8e\J 8G#\	.	.
=35	=35	=35
8EE/L 8EEE/	32ee\LLL 32g#\	.
.	32e\JJJ	.
.	16r	ff
8BB-X/ 8BBB-X/	32dd\LLL 32g#\	.
.	32d\JJJ	.
.	16r	.
8AA/ 8AAA/	32cc#\LLL 32a\	.
.	32c#\JJJ	.
.	16r	.
8C#/J 8CC#/	32ffn\LLL 32a\	.
.	32fn\JJJ	.
.	16r	.
=36	=36	=36
8Fn/L 8FFn/	32aa\LLL 32cc#\	.
.	32a\JJJ	.
.	16r	.
8A/J 8AA/	32ffn\LLL 32a\	.
.	32fn\JJJ	.
.	16r	.
4c#/ 4C#/	4ee\ 4cc#\ 4e\	.
=37	=37	=37
8AA\L	16cc#\LL 16c#'\	mf
.	16ee\ 16e'\	.
8e\J 8A\	16cc#\ 16c#'\	.
.	16ee\JJ 16e'\	.
8EE\L	4a\ 4A\	.
8e\J 8A\	.	.
=38	=38	=38
8GG#\L	16cc#\LL 16c#'\	.
.	16ee\ 16e'\	.
8e\J 8G#\	16cc#\ 16c#'\	.
.	16ee\JJ 16e'\	.
8EE\L	4g#\ 4G#\	.
8e\J 8G#\	.	.
!!LO:LB:g=original
=39	=39	=39
8DD#X/L 8DDD#X/	32dd#X/LLL 32g#/	.
.	32d#X/JJJ	.
.	16r	.
8AA/ 8AAA/	32cc#/LLL 32f##X/	.
.	32c#/JJJ	.
.	16r	.
8GG#/ 8GGG#/	32b#X/LLL 32g#/	.
.	32B#X/JJJ	.
.	16r	.
8BB#X/J 8BBB#X/	32ee/LLL 32g#/	.
.	32e/JJJ	.
.	16r	.
=40	=40	=40
8E/L 8EE/	32gg#/LLL 32b#X/	.
.	32g#/JJJ	.
.	16r	.
8G#/J 8GG#/	32b#/LLL 32g#/	.
.	32B#X/JJJ	.
.	16r	.
4c#/ 4C#/	4cc#/ 4g#/ 4c#/	.
=41	=41	=41
8AA\L	16cc#/LL 16c#'/	.
.	16ee/ 16e'/	.
8e\J 8A\	16cc#/ 16c#'/	.
.	16ee/JJ 16e'/	.
8EE\L	4a/ 4A/	.
8e\J 8A\	.	.
=42	=42	=42
8GG#\L	16cc#/LL 16c#'/	.
.	16ee/ 16e'/	.
8e\J 8G#\	16cc#/ 16c#'/	.
.	16ee/JJ 16e'/	.
8EE\L	4g#/ 4G#/	.
8e\J 8G#\	.	.
=43	=43	=43
8EE/L 8EEE/	32ee\LLL 32g#\	.
.	32e\JJJ	.
.	16r	.
8BB-X/ 8BBB-X/	32dd\LLL 32g#\	.
.	32d\JJJ	.
.	16r	.
8AA/ 8AAA/	32cc#\LLL 32a\	.
.	32c#\JJJ	.
.	16r	.
8C#/J 8CC#/	32ffn\LLL 32a\	.
.	32fn\JJJ	.
.	16r	.
=44	=44	=44
8Fn/L 8FFn/	32aa\LLL 32cc#\	.
.	32a\JJJ	.
.	16r	.
8A/J 8AA/	32ffn\LLL 32a\	.
.	32fn\JJJ	.
.	16r	.
4c#/ 4C#/	4ee\ 4cc#\ 4e\	.
!!LO:PB:g=original
=45	=45	=45
8AA\L	16cc#/LL 16c#/	mf
.	16ee/ 16e/	.
8e\J 8A\	16cc#/ 16c#/	.
.	16ee/JJ 16e/	.
8EE\L	4a/ 4A/	.
8e\J 8A\	.	.
=46	=46	=46
8FFn\L	16dd/LL 16d/	.
.	16ffn/ 16fn/	.
8d\J 8A\	16dd/ 16d/	.
.	16ff/JJ 16f/	.
!LO:TX:t=P:mixedbeam:problem	!	!
8BBB-X/L	4g#/ 4G#/	.
8B-X\J 8D\	.	.
=47	=47	=47
8EE/L 8EEE/	32a/LLL 32c#/	.
.	32A/JJJ	.
.	16r	.
8AA/ 8AAA/	32cc#/LLL 32e/	ff
.	32c#/JJJ	.
.	16r	.
8C#/ 8CC#/	32ffn/LLL 32a/	.
.	32fn/JJJ	.
.	16r	.
8Fn/J 8FFn/	32aa/LLL 32cc#/	.
.	32a/JJJ	.
.	16r	.
=48	=48	=48
8G#/L 8GG#/	32bb-X\LLL 32dd\	.
.	32b-X\JJJ	.
.	16r	.
8E/J 8EE/	32gg#\LLL 32dd\	.
.	32g#\JJJ	.
.	16r	.
4AA/ 4EE/ 4AAA/	4aa\ 4cc#\ 4a\	.
=49||	=49||	=49||
!LO:TX:t=P:problem=mixedbeam	!	!
8FF#/L	(4ccc#\ 4aa\ 4cc#\	pp
8f#\ 8A\	.	.
8a\ 8c#\	8ccc#\L 8aa\ 8cc#\	.
*clefG2	*	*
8cc#\J 8f#\	8aa\J 8ff#\ 8a\)	.
*clefF4	*	*
=50	=50	=50
!LO:TX:t=P:problem=mixedbeam	!	!
(8DD/L	(8ff#\L 8b#X\ 8f#\	.
8d\ 8F#\	8aa\J 8ff#\ 8a\	.
8d\ 8G#\	4bb#X\ 4gg#\ 4b#\)	.
8b#X\J 8d\)	.	.
!!LO:LB:g=original
=51	=51	=51
(8D\L	(8gg#\L 8dd\ 8g#\	.
8g#\ 8B#X\	8ddd\ 8gg#\ 8dd\	.
*clefG2	*	*
8b#X\ 8d\	8ggg#\ 8ddd\ 8gg#\	.
!	!LO:TX:b:i:t=poco meno mosso	!
8g#\J)	8eee#X\J 8bb#X\ 8ee#X\)	.
=52	=52	=52
(8A/L	4ccc#\ 4gg#\ 4cc#\	.
8a/ 8e#X/	.	.
8g#/ 8e#/	4ccc#\ 4gg#\ 4cc#\	.
*clefF4	*	*
8C#/J)	.	.
=53	=53	=53
(8FF#\L	(4ccc#\ 4gg#\ 4cc#\	.
8f#\ 8A\	.	.
*clefG2	*	*
8a\ 8c#\	8ccc#\L 8gg#\ 8cc#\	.
8cc#\J 8f#\)	8aa\J 8ff#\ 8a\)	.
*clefF4	*	*
=54	=54	=54
!LO:TX:t=P:problem=mixedbeam	!	!
(8DD/L	(8ff#\L 8b#X\ 8f#\	.
8d\ 8F#\	8aa\J 8ff#\ 8a\	.
8d\ 8G#\	4bb#X\ 4gg#\ 4b#X\)	.
8b#X\J 8d\)	.	.
*clefG2	*	*
=55	=55	=55
(8D/L	(8gg#\L 8dd\ 8g#\	.
8g#/ 8B#X/	8ddd\ 8gg#\ 8dd\	.
8b#X/ 8d/	8ggg#\ 8ddd\ 8gg#\	.
8g#/J)	8eee#X\J 8bb#X\ 8ee#X\)	.
=56	=56	=56
!	!LO:TX:b:i:t=Trio da Capo	!
(>8A/L	4ccc#\ 4gg#\ 4cc#\	.
8a/J 8e#X/	.	.
8g#/L 8e#/	4ccc#\ 4gg#\ 4cc#\	.
8C#/J)	.	.
*clefF4	*	*
=57:|!	=57:|!	=57:|!
!	!LO:TX:a:t=a tempo	!
8AA'\L	16cc#\LL 16c#'\	mf
.	16ee\ 16e'\	.
8e\J 8A'\	16cc#\ 16c#'\	.
.	16ee\JJ 16e'\	.
8EE'\L	4a\ 4A\	.
8e\J 8A'\	.	.
!!LO:LB:g=original
=58	=58	=58
8GG#\L	16cc#/LL 16c#'/	.
.	16ee/ 16e'/	.
8e\J 8G#\	16cc#/ 16c#'/	.
.	16ee/JJ 16e'/	.
8EE\L	4g#/ 4G#/	.
8e\J 8G#\	.	.
=59	=59	=59
8EE/L 8EEE/	32ee/LLL 32g#/	.
.	32e/JJJ	ff
.	16r	.
8BB-X/ 8BBB-X/	32dd/LLL 32g#/	.
.	32d/JJJ	.
.	16r	.
8AA/ 8AAA/	32cc#/LLL 32a/	.
.	32c#/JJJ	.
.	16r	.
8C#/J 8CC#/	32ffn/LLL 32a/	.
.	32fn/JJJ	.
.	16r	.
=60	=60	=60
8Fn/L 8FFn/	32aa\LLL 32cc#\	.
.	32a\JJJ	.
.	16r	.
8A/J 8AA/	32ffn\LLL 32a\	.
.	32fn\JJJ	.
.	16r	.
4c#/ 4C#/	4ee\ 4cc#\ 4e\	.
=61	=61	=61
8AA\L	16cc#/LL 16c#'/	mf
.	16ee/ 16e'/	.
8e\J 8A\	16cc#/ 16c#'/	.
.	16ee/JJ 16e'/	.
8EE\L	4a/ 4A/	.
8e\J 8A\	.	.
=62	=62	=62
8AA\L	16cc#/LL 16c#'/	.
.	16ffn/ 16fn'/	.
8fn\J 8A\	16cc#/ 16c#'/	.
.	16ff/JJ 16f'/	.
8FFn\L	4a/ 4A/	.
8f\J 8A\	.	.
=63	=63	=63
8FFn/L 8FFFn/	32ffn/LLL 32a/	.
.	32fn/JJJ	.
.	16r	.
8C-X/ 8CC-X/	32ee-X/LLL 32a/	.
.	32e-X/JJJ	.
.	16r	.
8BB-X/ 8BBB-X/	32dd/LLL 32b-X/	.
.	32d/JJJ	.
.	16r	.
8D/J 8DD/	32gg-X/LLL 32b-/	.
.	32g-X/JJJ	.
.	16r	.
!!LO:LB:g=original
=64	=64	=64
8G-X/L 8GG-X/	16g-X'/LL	.
.	16fn'/	.
8Fn/J 8FFn/	16f'/	.
.	16a'/JJ	.
8B-X/L 8BB-X/	4b-X/	.
8BB-/J 8BBB-X/	.	.
=65	=65	=65
!LO:TX:t=P:problem=mixedbeam	!	!
8DD/L 8DDD/	16dd\LL	ff
.	16ffn\	.
8d\J 8B-X\ 8Fn\	16dd\	.
.	16ff\JJ	.
8B-\L 8F\ 8D\	4b-X\ 4fn\ 4d\	.
8d\J 8B-\ 8F\	.	.
=66	=66	=66
8G-X/L 8GG-X/	16g-X/LL	.
.	16fn/	.
8Fn/J 8FFn/	16f/	.
.	16a/JJ	.
8B-X/L 8BB-X/	4b-X/	.
8BB-/J 8BBB-X/	.	.
=67	=67	=67
!LO:TX:t=P:problem=mixedbeam	!	!
8DD/L 8DDD/	16ff#X\LL	.
.	16aa\	.
8f#X\J 8d\ 8A\	16ff#\	.
.	16aa\JJ	.
8d\L 8A\ 8F#\	4dd\ 4a\ 4f#X\	.
8f#\J 8d\ 8A\	.	.
=68	=68	=68
8B-X\L 8BB-X\	16b-X\LL	.
.	16a\	.
8A\J 8AA\	16a\	.
.	16cc#\JJ	.
8d\L 8D\	4dd\	.
8D\J 8DD\	.	.
=69	=69	=69
8DD\L	16aa#X\LL	p
.	16ccc#\	.
8a#X\J 8f#\ 8c#\	16aa#\	.
.	16ccc#\JJ	.
8f#\L 8c#\ 8A#X\	4ff#\ 4cc#\ 4a#X\	.
8a#\J 8f#\ 8c#\	.	.
!!LO:LB;g=original
=70	=70	=70
!LO:TX:t=P:problem=mixedbeam	!	!
8BBB-X/L	16ff#\LL	.
.	16aan\	.
8f#\J 8d\ 8A\	16ff#\	.
.	16aa\JJ	.
8d\L 8A\ 8F#\	4ff#\ 4a\ 4f#\	.
8f#\J 8d\ 8A\	.	.
=71	=71	=71
!LO:TX:t=P:problem=mixedbeam	!	!
8FFF#/L	16dd\LL	.
!	!LO:TX:b:t=cres-cen-do:ext2=cd:problem=dynamics with extention lines	!LO:HP:t=cresc
.	16ffn\	<
8d\J 8B-X\ 8Fn\	16dd\	.
.	16ff\JJ	.
8B-\L 8F\ 8D\	4b-X\ 4fn\ 4d\	.
8d\J 8B-\ 8F\	.	.
=72	=72	=72
!LO:TX:t=P:problem=mixedbeam	!	!
8DDD/L	16a#X\LL	.
.	16cc#\	.
8A#X\J 8F#\ 8C#\	16a#\	.
.	16cc#\JJ	[
8F#\L 8C#\ 8AA\	4f#/ 4c#/ 4A#X/	.
8A#\J 8F#\ 8C#\	.	.
=73	=73	=73
8DDD/L	16d'/LL	.
!	!LO:TX:b:i:t=con forza	!
.	16c#'/	.
8C#/J 8CC#/	16c#'/	.
.	16e#X'/	.
8DDD/L	16c#'/	.
.	16cn'/	.
8Cn/J 8CCn/	16c'/	.
.	16en'/JJ	.
=74	=74	=74
8DDD/L	16cn/LL	.
.	16B/	.
8BB/J 8BBB/	16B/	.
.	16d#X/	.
8DDD/L	16B/	.
.	16B-X/	.
8BB-X/J 8BBB-X/	16B-/	.
.	16dn/JJ	.
=75	=75	=75
8DDD/L	16B-X/LL	.
.	16A/	.
8AA/J 8AAA/	16A/	.
.	16c#/	.
8DDD/L	16A/	.
.	16G#/	.
8GG#/J 8GGG#/	16G#/	.
.	16B#X/JJ	.
!!LO:LB:g=original
=76	=76	=76
8DDD/L	16A/LL	.
.	16G#/	.
8GG#/J 8GGG#/	16G#/	.
.	16B#X/JJ	.
8DDD/L	16A/LL	.
.	16G#/	.
8GG#/J 8GGG#/	16G#/	.
.	16B#/JJ	.
=77||	=77||	=77||
!	!	!LO:DY:a
4CC#\ 4CCC#\	4c#</ 4C#</	ff
4EE#X\ 4EEE#X\	4e#X</ 4E#X</	.
=78	=78	=78
4AA\ 4AAA\	4a<\ 4A<\	.
4GG#\ 4GGG#\	4g#<\ 4G#<\	.
=79	=79	=79
8GG#\L	8ddd\ 8dd\	p
8f#\J 8B#X\ 8G#\	32ddd\LLL	.
.	32ccc#\JJJ 32cc#\	.
.	16r	.
8f#\L 8B#\ 8G#\	32ccc#\LLL	.
.	32bb#X\JJJ 32b#X\	.
.	16r	.
8f#\J 8B#\ 8G#\	32bb#\LLL	.
.	32aa\JJJ 32a\	.
.	16r	.
=80	=80	=80
8f#\L 8B#X\ 8G#\	32aa\LLL	.
.	32gg#\JJJ 32g#\	.
.	16r	.
8f#\J 8B#\ 8G#\	32gg#\LLL	.
.	32bb#X\JJJ 32b#X\	.
.	16r	.
4e#X\ 4c#\	4ccc#\ 4cc#\	.
=81	=81	=81
4CC#\ 4CCC#\	4c#</ 4C#</	.
4EE#X\ 4EEE#X\	4e#X</ 4E#X</	.
!!LO:LB:g=original
=82	=82	=82
4AA\ 4AAA\	4a</ 4A</	.
4GG#\ 4GGG#\	4g#</ 4G#</	.
=83	=83	=83
8GG#\L	8ddd\ 8dd\	.
8f#\J 8B#X\ 8G#\	32ddd\LLL	.
.	32ccc#\JJJ 32cc#\	.
.	16r	.
8f#\L 8B#\ 8G#\	32ccc#\LLL	.
.	32bb#X\JJJ 32b#X\	.
.	16r	.
8f#\J 8B#\ 8G#\	32bb#\LLL	.
.	32aa\JJJ 32a\	.
.	16r	.
=84	=84	=84
8f#\L 8B#X\ 8G#\	32aa\LLL	.
.	32gg#\JJJ 32g#\	.
.	16r	.
8f#\J 8B#\ 8G#\	32gg#\LLL	.
.	32bb#X\JJJ 32b#X\	.
.	16r	.
4e#X\ 4c#\	4ccc#\ 4cc#\	.
=85||	=85||	=85||
8FF#\L	8cc#\L 8a\	.
8f#\J 8A\	8a\J 8c#\	.
8A\L 8F#\	4cc#\ 4aTT\	.
8f#\J 8A\	.	.
=86	=86	=86
8FF#\L	8b#X\L 8g#\	.
8d\J 8G#\	8g#\J 8B#X\	.
8G#\L 8F#\	4b#\ 4g#tt\	.
8d\J 8G#\	.	.
=87	=87	=87
4E#X\ 4CC#\	8cc#\ 8g#\ 8c#\	.
.	(16gg#\LL	.
.	16ee#X\JJ)	.
4e#X\ 4c#\ 4G#\ 4E#\	(16ee#\LL	.
.	16dd\JJ)	.
.	(16dd\LL	.
.	16cc#\JJ)	.
!!LO:PB:g=original
=88	=88	=88
!	!	!LO:DY:rj
16c#'\LL	16cc#'\LL	f
16d'\	16dd'\	.
16B#X'\	16b#X'\	.
16c#'\	16cc#'\	.
16A'\	16a'\	.
16B#'\	16b#'\	.
16G#'\	16g#'\	.
16A'\JJ	16a'\JJ	.
=89	=89	=89
8FF#\L	8cc#\L 8a\	mf
8f#\J 8A\	8a\J 8c#\	.
8A\L 8F#\	4cc#\ 4aTT\	.
8f#\J 8A\	.	.
=90	=90	=90
8FF#\L	8b#X\L 8g#\	.
8d\J 8G#\	8g#\J 8B#X\	.
8G#\L 8F#\	4b#\ 4g#tt\	.
8d\J 8G#\	.	.
=91	=91	=91
4E#X\ 4CC#\	8cc#\ 8g#\ 8c#\	.
.	(16gg#\LL	f
.	16ccc#\JJ)	.
4g#\ 4e#X\ 4c#\ 4G#\	(16cc#\LL	.
.	16gg#\JJ)	.
.	(16g#\LL	.
.	16cc#\JJ)	.
=92	=92	=92
16G#'\LL	16g#'\LL	p
16A'\	16a'\	.
16A'\	16a'\	.
16B#X'\	16b#X'\	.
16B#'\	16b#'\	.
16c#'\	16cc#'\	.
16c#'\	16cc#'\	.
16fn'\JJ	16ffn'\JJ	.
=93	=93	=93
8AA\L	8ee\L 8cc#\	.
8a\J 8c#\	8cc#\J 8e\	.
8c#\L 8A\	4ee\ 4cc#tt\	.
8a\J 8c#\	.	.
=94	=94	=94
8FF#\L	8cc#\L 8a\	.
8fn\J 8A\	8a\J 8c#\	.
8A\L 8Fn\	4cc#\ 4aTT\	.
8f\J 8A\	.	.
!!LO:LB:g=original
=95	=95	=95
4c#\ 4E\ 4AA\	8ee\ 8a\ 8e\	.
.	(16aa\LL	f
.	16eee\JJ)	.
4a\ 4c#\ 4A\	(16ee\LL	.
.	16aa\JJ)	.
.	(16a\LL	.
.	16ee\JJ)	.
=96	=96	=96
16G#'\LL	16g#'\LL	.
16A'\	16a'\	.
16A'\	16a'\	.
16c#'\	16cc#'\	.
16c#'\	16cc#'\	.
16d'\	16dd'\	.
16d'\	16dd'\	.
16fn'\JJ	16ffn'\JJ	.
=97	=97	=97
8AA\L	8ee\L 8cc#\	p
8a\J 8c#\	8cc#\J 8e\	.
8GG#\L	4ee\ 4b#Xtt\	.
8g#\J 8B#X\	.	.
=98	=98	=98
8FF##X\L	8cc#\L 8a\	.
8d#X\J 8F##X\	8a\J 8c#\	.
8EE\L	4b#X\ 4g#tt\	<[
8B#X\J 8G#\	.	.
=99	=99	=99
8EE#X\L	8b#X\L 8g#\	.
8G#\J 8BB#X\	8g#\J 8B#X\	.
8EE#\L	4e#X\ 4c#tt\	.
8A\J 8C#\	.	.
=100	=100	=100
8FF#\L	8f#/L 8d/	.
8A\J 8D\	8d/J 8F#/	.
8GG#\L	4B#X/ 4G#tt/	.
8G#\J 8D\	.	.
!!LO:LB:g=original
=101||	=101||	=101||
!	!	!LO:DY:a
4CC#\ 4CCC#\	4c#</ 4C#</	ff
4EE#X\ 4EEE#X\	4e#X</ 4E#X</	.
=102	=102	=102
4AA\ 4AAA\	4a</ 4A</	.
4GG#\ 4GGG#\	4g#</ 4G#</	.
=103	=103	=103
8GG#\L	8ddd\ 8dd\	p
8f#\J 8B#X\ 8G#\	32ddd\LLL	.
.	32ccc#\JJJ 32cc#\	.
.	16r	.
8f#\L 8B#\ 8G#\	32ccc#\LLL	.
.	32bb#X\JJJ 32b#X\	.
.	16r	.
8f#\J 8B#\ 8G#\	32bb#\LLL	.
.	32aa\JJJ 32a\	.
.	16r	.
=104	=104	=104
8f#\L 8B\ 8G#\	32aa\LLL	.
.	32gg#\JJJ 32g#\	.
.	16r	.
8f#\J 8B\ 8G#\	32gg#\LLL	.
.	32bb#X\JJJ 32b#X\	.
.	16r	.
4e#X\ 4c#\	4ccc#\ 4cc#\	.
=105||	=105||	=105||
4EE#X/ 4EEE#X/	4e#X/ 4E#X/	.
4GG##X/ 4GGG##X/	4g##X/ 4G##X/	.
=106	=106	=106
4C#/ 4CC#/	4cc#/ 4c#/	.
4BB#X/ 4BBB#X/	4b#X/ 4B#X/	.
=107	=107	=107
8BB#X\L	8fff#\ 8ff#\	pp
*clefG2	*	*
8a#X\J 8d##X\ 8B#X\	32fff#\LLL	.
.	32eee#X\JJJ 32ee#X\	.
.	16r	.
8a#\L 8d##\ 8B#\	32eee#\LLL	.
.	32ddd##X\JJJ 32dd##X\	.
.	16r	.
8a#\J 8d##\ 8B#\	32ddd##\LLL	.
.	32ccc#\JJJ 32cc#\	.
.	16r	.
!!LO:LB:g=original
=108	=108	=108
8a#X/L 8d##X/ 8B#X/	32ccc#\LLL	.
.	32bb#X\JJJ 32b#X\	.
.	16r	.
8a#/J 8d##/ 8B#/	32bb#\LLL	.
.	32ddd##X\JJJ 32dd##X\	.
.	16r	.
4g##X/ 4e#X/	4eee#X\ 4ee#X\	.
*clefF4	*	*
=109||	=109||	=109||
8C#\L	16ee#X\LL 16e#X'\	mf
.	16gg#\ 16g#'\	.
8g#\J 8c#\	16ee#\ 16e#'\	.
.	16gg#\JJ 16g#'\	.
8GG#\L	4cc#\ 4c#\	.
8g#\J 8c#\	.	.
=110	=110	=110
8BB#X\L	16ee#X\LL 16e#X'\	.
.	16gg#\ 16g#'\	.
8g#\J 8B#X\	16ee#\ 16e#'\	.
.	16gg#\JJ 16g#'\	.
8GG#\L	4b#X\ 4B#X\	.
8g#\J 8B#\	.	.
=111	=111	=111
8GG#/L 8GGG#/	(32gg#\LLL 32b#X\	ff
.	32g#\JJJ)	.
.	16r	.
8D/ 8DD/	(32ff#\LLL 32b#\	.
.	32f#\JJJ)	.
.	16r	.
8C#/ 8CC#/	(32ee#X\LLL 32cc#\	.
.	32e#X\JJJ)	.
.	16r	.
8E#X/J 8EE#X/	(32aa\LLL 32cc#\	.
.	32a\JJJ)	.
.	16r	.
=112	=112	=112
8A\L 8AA\	(32ccc#\LLL 32ee#X\	.
.	32cc#\JJJ)	.
.	16r	.
8c#\J 8C#\	(32aa\LLL 32ee#\	.
.	32a\JJJ)	.
.	16r	.
4e#X\ 4E#X\	4gg#\ 4ee#\ 4g#\	.
!!LO:LB:g=original
=113	=113	=113
8C#\L	16ee#X\LL 16e#X'\	.
.	16gg#\ 16g#\	.
8g#\J 8c#\	16ee#\ 16e#\	.
.	16gg#\JJ 16g#\	.
8GG#\L	4cc#\ 4c#\	.
8g#\J 8c#\	.	.
=114	=114	=114
8BB#X\L	16ee#X\LL 16e#X'\	.
.	16gg#\ 16g#'\	.
8g#\J 8B#X\	16ee#\ 16e#\	.
.	16gg#\JJ 16g#\	.
8GG#\L	4b#X\ 4B#X\	.
8g#\J 8B#\	.	.
=115	=115	=115
8GG#/L 8GGG#/	(32ff##X\LLL 32b#X\	.
.	32f##X\JJJ)	.
.	16r	.
8C#/J 8CC#/	(32ee#X\LLL 32bn\	.
.	32e#X\JJJ)	.
.	16r	.
8BB#X/L 8BBB#X/	(32dd##X\LLL 32b#X\	.
.	32d##X\JJJ)	.
.	16r	.
8D##X/J 8DD##X/	(32gg#\LLL 32b#\	.
.	32g#\JJJ)	.
.	16r	.
=116	=116	=116
8G#\L 8GG#\	(32bb#X\LLL 32dd##X\	.
.	32b#X\JJJ)	.
.	16r	.
8B#X\J 8BB#X\	(32dd##\LLL 32b#\	.
.	32d##X\JJJ)	.
.	16r	.
4e#X\ 4E#X\	4ee#X\ 4b#\ 4e#X\	.
=117	=117	=117
8C#\L	16ee#X\LL 16e#X'\	mf
.	16gg#\ 16g#'\	.
8g#\J 8c#\	16ee#\ 16e#'\	.
.	16gg#\JJ 16g#'\	.
8GG#\L	4cc#\ 4c#\	.
8g#\J 8c#\	.	.
!!LO:LB:g=original
=118	=118	=118
8BB#X\L	16ee#X\LL 16e#X'\	.
.	16gg#\ 16g#'\	.
8g#\J 8B#X\	16ee#\ 16e#'\	.
.	16gg#\JJ 16g#'\	.
8GG#\L	4b#X\ 4B#X\	.
8g#\J 8B#\	.	.
=119	=119	=119
8GG#/L 8GGG#/	(32gg#\LLL 32b#X\	.
.	32g#\JJJ)	.
.	16r	.
8D/J 8DD/	(32ff#\LLL 32b#\	.
.	32f#\JJJ)	.
.	16r	.
8C#/L 8CC#/	(32ee#X\LLL 32cc#\	.
.	32e\JJJ)	.
.	16r	.
8E#X/J 8EE#X/	(32aa\LLL 32cc#\	.
.	32a\JJJ)	.
.	16r	.
=120	=120	=120
8A\L 8AA\	(32ccc#\LLL 32ee#X\	.
.	32cc#\JJJ)	.
.	16r	.
8c#\J 8C#\	(32aa\LLL 32ee#\	.
.	32a\JJJ)	.
.	16r	.
4e#X\ 4E#X\	4gg#\ 4ee#\ 4g#\	.
=121	=121	=121
!LO:TX:t=P:problem=mixedbeam	!	!
8CC#/L	(16ee#X\LL	ff
.	16gg#\	.
8e#X\J 8c#\ 8G#\	16ee#\	.
.	16gg#\JJ)	.
8c#\L 8G#\ 8E\	4cc#\ 4g#\ 4e#X\	.
8e#\J 8c#\ 8G#\	.	.
=122	=122	=122
!LO:TX:t=P:problem=mixedbeam	!	!
8CC#/L	(16cc#\LL	.
.	16een\	.
8c#\J 8A\ 8En\	16cc#\	.
.	16ee\JJ)	.
8A\L 8E\ 8C#\	4a/ 4en/ 4c#/	.
8c#\J 8A\ 8E\	.	.
!!LO:LB:g=original
=123	=123	=123
*8ba	*	*
8CCC#\L	16a\LL	.
.	16ccn\	.
*X8ba	*	*
8A\J 8Fn\ 8Cn\	16a\	.
.	16cc\JJ	.
8F\L 8C\ 8AA\	4fn/ 4cn/ 4A/	.
8A\J 8F\ 8C\	.	.
=124	=124	=124
*8ba	*	*
8CCC#\L	16e#X/LL	.
.	16g#/	.
*X8ba	*	*
8E#X\J 8C#\ 8GG#\	16e#/	.
.	16g#/JJ	.
8GG#\L 8EE#X\	4c#</ 4G#</ 4E#X</	.
8E#\J 8C#\ 8GG#\	.	.
=125	=125	=125
8DDD\L	16d'/LL	.
.	16c#'/	.
8C#\J 8CC#\	16c#'/	.
.	16e#X'/JJ	.
8DDD\L	16c#'/LL	.
.	16cn'/	.
8Cn\J 8CCn\	16c'/	.
.	16en'/JJ	.
=126	=126	=126
8DDD\L	16cn/LL	.
.	16B/	.
8BB\J 8BBB\	16B/	.
.	16d#X/	.
8DDD\L	16B/	.
.	16B-X/	.
8BB-X\J 8BBB-X\	16B-/	.
.	16dn/JJ	.
=127	=127	=127
8DDD\L	16B-X/LL	.
.	16A/	.
8AA\J 8AAA\	16A/	.
.	16c#/	.
8DDD\L	16A/	.
.	16G#/	.
8GG#\J 8GGG#\	16G#/	.
.	16c#X/JJ	.
!!LO:PB:g=original
=128	=128	=128
8CCC#/L	16A/LL	.
.	16G#/	.
8GG#/J 8GGG#/	16G#/	.
.	16c#/JJ	.
8CCC#/L	16A/LL	.
.	16G#/	.
8GG#/J 8GGG#/	16G#/	.
.	16c#/JJ	.
=129	=129	=129
4CCC#\	4C#</	.
4r	4ryy	.
=130	=130	=130
4c#\ 4A\ 4E#X\	4ee#X\ 4cc#\ 4a\ 4e#X\	.
4r	4r	.
=131	=131	=131
32qqC#\ 32qqGG#\ 32qqCC#\	32qqc#</ 32qqG#</ 32qqE#X</	.
2C#\ 2GG#\ 2CC#\	2c#</ 2G#</ 2E#</	.
==	==	==
*-	*-	*-
!!!system-decoration: (s1,s2)
!!!RDF**kern: > = above
!!!RDF**kern: < = below
!!!RDF**dynam: p = p.
!!!RDF**dynam: pp = pp.
!!!RDF**dynam: mf = mf.
!!!RDF**dynam: ff = ff.
!!!EED: Leszek Kubiak
!!!EST: 2021-05-24
!!!AIN: 2 forte
!!!ENC: Anastazja Marusiak
!!!END: 2021-05-05
